public/shield.svg

<svg width="779" height="1341" viewBox="0 0 779 1341" fill="none" xmlns="http://www.w3.org/2000/svg">
<path d="M388.152 0C390.884 0.0121028 407.155 17.0114 410.836 20.4434C516.797 119.24 644.87 140.657 777.982 159.5C778.943 247.05 777.78 353.187 777.982 440.745C777.99 562.881 779.393 686.851 755.377 806.461C722.313 971.146 639.04 1115.2 528.616 1225.37C485.108 1268.15 438.631 1306.75 389.651 1340.78L388.27 1341C384.12 1339.37 364.977 1324.36 360.003 1320.66C302.349 1277.8 249.742 1229.57 201.366 1173.37C171.291 1138.35 144.067 1100.23 120.036 1059.48C64.4961 966.201 29.0909 867.995 12.9151 756.278C-0.319623 664.879 0.0330118 574.26 0 481.903V156C20.2783 154.031 44.0001 152.016 64 148C149.007 130.93 232.811 119.858 306.934 68.1303C335.451 48.2289 362.123 23.859 388.152 0Z" fill="#FFEFD6"/>
</svg>

<svg xmlns="http://www.w3.org/2000/svg" width="779" height="1341" fill="none" viewBox="0 0 779 1341"><path fill="#ffefd6" d="M388.15 0c2.73.01 19 17.01 22.69 20.44 105.96 98.8 234.03 120.22 367.14 139.06.96 87.55-.2 193.69 0 281.25.01 122.13 1.41 246.1-22.6 365.71-33.07 164.69-116.34 308.74-226.76 418.91a1065 1065 0 0 1-138.97 115.41l-1.38.22c-4.15-1.63-23.3-16.64-28.27-20.34-57.65-42.86-110.26-91.09-158.63-147.29a793 793 0 0 1-81.33-113.89C64.5 966.2 29.09 868 12.92 756.28-.32 664.88.03 574.26 0 481.9V156c20.28-1.97 44-3.98 64-8 85-17.07 168.81-28.14 242.93-79.87 28.52-19.9 55.2-44.27 81.22-68.13"/></svg>
